src/assets/svg/Harhuy.svg

<svg width="218" height="117" viewBox="0 0 218 117" fill="none" xmlns="http://www.w3.org/2000/svg">
<path d="M22.4909 45.5911H10.9687V0.0444394H0.802018V99H10.9687V48.3022H22.4909V99H32.6576V0.0444394H22.4909V45.5911ZM49.1022 100.356C43.951 100.356 41.2399 97.2378 41.2399 90.7311V81.3778C41.2399 70.3978 46.9333 66.06 57.6422 56.0289V30.9511C57.6422 26.6133 56.5577 25.5289 52.0844 25.5289C45.0355 25.5289 43.2733 28.5111 43.2733 33.2556C43.2733 38.9489 45.5777 43.9644 56.6933 55.2156H43.6799C40.9688 48.7089 40.1555 40.9822 40.1555 34.7467C40.1555 26.2067 46.7977 16.3111 55.3377 16.3111C63.1999 16.3111 67.131 20.5133 67.131 27.4267V83.0044C67.131 90.3244 68.4866 91.1378 69.9777 91.1378C71.1977 91.1378 72.1466 90.3244 72.2822 85.8511L72.6888 62.1289H74.5866L74.9933 85.3089C75.1288 93.8489 73.7733 100.356 67.4022 100.356C61.8444 100.356 59.4044 96.4244 61.031 77.1756L59.6755 76.9044C57.6422 97.1022 54.2533 100.356 49.1022 100.356ZM53.0333 90.46C56.0155 90.46 57.6422 82.1911 57.6422 69.72V58.8756C51.6777 64.5689 50.7288 67.9578 50.7288 73.6511V87.2067C50.7288 89.6467 51.6777 90.46 53.0333 90.46ZM100.352 26.3422C96.0139 26.3422 91.2695 33.5267 91.2695 47.2178V99H81.7806V17.6667H91.1339V19.1578L88.1517 39.7622L89.5072 40.0333C92.3539 19.7 95.7428 16.3111 100.352 16.3111C104.418 16.3111 106.452 20.7844 106.452 29.7311C106.452 33.2556 106.045 42.3378 103.741 54.4022H93.4384C101.165 38.1356 104.012 32.3067 104.012 29.8667C104.012 27.4267 102.792 26.3422 100.352 26.3422ZM122.008 0.0444394V19.1578L118.754 39.7622L120.11 40.0333C122.957 19.7 127.566 16.3111 132.717 16.3111C137.732 16.3111 141.392 20.5133 141.392 27.2911V99H131.903V32.5778C131.903 27.6978 131.226 25.5289 128.65 25.5289C124.854 25.5289 122.008 34.8822 122.008 47.6244V99H112.519V0.0444394H122.008ZM170.267 99V97.5089L173.52 76.9044L172.164 76.6333C169.318 96.9667 164.709 100.356 159.558 100.356C154.542 100.356 150.882 96.1533 150.882 89.3756V17.6667H160.371V84.0889C160.371 88.9689 161.049 91.1378 163.624 91.1378C167.42 91.1378 170.267 81.7844 170.267 69.1778V17.6667H179.755V99H170.267ZM203.072 74.7356H201.581L198.599 47.6244L194.125 17.6667H183.823L197.243 87.8844H201.174L187.212 116.622H198.87L217.848 17.6667H206.732L203.072 74.7356Z" fill="#F4D116"/>
</svg>

<svg width="218" height="117" fill="none" xmlns="http://www.w3.org/2000/svg"><path d="M22.49 45.591H10.97V.044H.802V99h10.167V48.302H22.49V99h10.167V.044H22.49v45.547zm26.612 54.765c-5.151 0-7.862-3.118-7.862-9.625v-9.353c0-10.98 5.693-15.318 16.402-25.35V30.952c0-4.338-1.084-5.422-5.558-5.422-7.049 0-8.81 2.982-8.81 7.727 0 5.693 2.304 10.708 13.42 21.96H43.68c-2.711-6.507-3.524-14.234-3.524-20.47 0-8.54 6.642-18.435 15.182-18.435 7.862 0 11.793 4.202 11.793 11.116v55.577c0 7.32 1.356 8.134 2.847 8.134 1.22 0 2.169-.814 2.304-5.287l.407-23.722h1.898l.406 23.18c.136 8.54-1.22 15.047-7.59 15.047-5.559 0-7.999-3.932-6.372-23.18l-1.355-.272c-2.034 20.198-5.423 23.452-10.574 23.452zm3.931-9.896c2.983 0 4.61-8.269 4.61-20.74V58.876c-5.965 5.693-6.914 9.082-6.914 14.775v13.556c0 2.44.949 3.253 2.304 3.253zm47.319-64.118c-4.338 0-9.083 7.185-9.083 20.876V99h-9.488V17.667h9.353v1.49l-2.982 20.605 1.355.271c2.847-20.333 6.236-23.722 10.845-23.722 4.066 0 6.1 4.473 6.1 13.42 0 3.525-.407 12.607-2.711 24.671H93.438c7.727-16.266 10.574-22.095 10.574-24.535 0-2.44-1.22-3.525-3.66-3.525zM122.008.044v19.114l-3.254 20.604 1.356.271c2.847-20.333 7.456-23.722 12.607-23.722 5.015 0 8.675 4.202 8.675 10.98V99h-9.489V32.578c0-4.88-.677-7.05-3.253-7.05-3.796 0-6.642 9.354-6.642 22.096V99h-9.489V.044h9.489zM170.267 99v-1.491l3.253-20.605-1.356-.27c-2.846 20.333-7.455 23.722-12.606 23.722-5.016 0-8.676-4.203-8.676-10.98v-71.71h9.489V84.09c0 4.88.678 7.049 3.253 7.049 3.796 0 6.643-9.354 6.643-21.96V17.667h9.488V99h-9.488zm32.805-24.264h-1.491l-2.982-27.112-4.474-29.957h-10.302l13.42 70.217h3.931l-13.962 28.738h11.658l18.978-98.955h-11.116l-3.66 57.069z" fill="#F4D116"/></svg>
